icons/marketplace-asos.svg

<svg width="36" height="36" viewBox="0 0 36 36" fill="none" xmlns="http://www.w3.org/2000/svg">
    <rect width="36" height="36" rx="8" fill="black"/>
    <path fill-rule="evenodd" clip-rule="evenodd"
          d="M17.8062 7.70001H18.0909C18.8378 7.72448 19.586 7.83008 20.2995 8.05803C21.3349 8.36196 22.2995 8.87838 23.1881 9.48752C23.2911 9.55062 23.3864 9.65751 23.5178 9.65236C23.5796 9.61115 23.595 9.53775 23.5963 9.4682C23.6053 9.15784 23.5873 8.84618 23.6015 8.53581C23.6053 8.35552 23.774 8.20355 23.9556 8.2203C25.1185 8.21643 26.284 8.2203 27.4482 8.21901C27.5886 8.20742 27.7212 8.26795 27.7998 8.38643V27.5983C27.7225 27.7168 27.586 27.7708 27.4482 27.7657C26.2995 27.767 25.1495 27.7657 24.0007 27.767C23.8243 27.7811 23.6259 27.6652 23.6053 27.4785C23.5731 27.1063 23.6272 26.729 23.5809 26.3581C23.5448 26.2229 23.3877 26.2898 23.3169 26.3529C21.9492 27.427 20.2763 28.1417 18.5313 28.2538C17.6852 28.3298 16.8339 28.2409 15.9981 28.107C15.0142 27.9099 14.0445 27.5983 13.1726 27.096C12.1231 26.5319 11.201 25.7541 10.3935 24.8822C9.31043 23.6871 8.50425 22.2332 8.11661 20.6646C7.90798 19.8378 7.81526 18.9866 7.7998 18.1366V17.8069C7.82556 16.1701 8.20933 14.5294 8.99105 13.0857C9.66458 11.861 10.6008 10.7857 11.6929 9.91508C12.8365 8.99042 14.181 8.29628 15.6195 7.97046C16.3343 7.79531 17.0722 7.72191 17.8062 7.70001ZM17.1366 11.6112C16.7721 11.6588 16.4141 11.7528 16.0625 11.8649C15.1288 12.1997 14.2982 12.8063 13.6839 13.5867C12.7657 14.7432 12.2956 16.2164 12.2364 17.682C12.1836 19.0999 12.4489 20.5603 13.1791 21.7902C13.7972 22.8436 14.767 23.6961 15.9093 24.1366C17.3916 24.7135 19.1031 24.5951 20.5287 23.9086C21.3182 23.5107 22.0123 22.9131 22.4849 22.1636C23.1662 21.1102 23.4392 19.8468 23.5049 18.6079C23.5461 17.6665 23.4997 16.7135 23.2911 15.7914C23.0503 14.6981 22.5352 13.6356 21.6929 12.8784C21.1353 12.3671 20.4411 12.0245 19.7212 11.8056C18.8842 11.5725 18.0007 11.5107 17.1366 11.6112Z"
          fill="white"/>
</svg>

<svg xmlns="http://www.w3.org/2000/svg" fill="none" viewBox="0 0 36 36"><rect width="36" height="36" fill="currentColor" rx="8"/><path fill="currentColor" fill-rule="evenodd" d="M17.806 7.7h.285c.747.024 1.495.13 2.208.358 1.036.304 2 .82 2.89 1.43.102.063.197.17.329.164.062-.04.077-.114.078-.184.01-.31-.009-.622.006-.932a.33.33 0 0 1 .354-.316c1.163-.004 2.328 0 3.492-.001a.38.38 0 0 1 .352.167v19.212a.39.39 0 0 1-.352.168l-3.447.001c-.177.014-.375-.102-.396-.288-.032-.373.022-.75-.024-1.12-.036-.136-.193-.07-.264-.006-1.368 1.074-3.04 1.789-4.786 1.9-.846.077-1.697-.012-2.533-.146-.984-.197-1.953-.509-2.825-1.011-1.05-.564-1.972-1.342-2.78-2.214-1.083-1.195-1.889-2.649-2.276-4.217a11.2 11.2 0 0 1-.317-2.528v-.33c.026-1.637.41-3.278 1.191-4.721.674-1.225 1.61-2.3 2.702-3.17 1.143-.926 2.488-1.62 3.927-1.946.714-.175 1.452-.248 2.186-.27m-.67 3.911a6 6 0 0 0-1.073.254 5.35 5.35 0 0 0-2.38 1.722c-.917 1.156-1.387 2.63-1.447 4.095-.052 1.418.213 2.878.943 4.108.618 1.054 1.588 1.906 2.73 2.347 1.483.576 3.194.458 4.62-.228.79-.398 1.483-.996 1.956-1.745.681-1.054.954-2.317 1.02-3.556.041-.942-.005-1.895-.214-2.817-.24-1.093-.756-2.155-1.598-2.913-.558-.51-1.252-.854-1.972-1.072a6.8 6.8 0 0 0-2.584-.195" clip-rule="evenodd"/></svg>
